X: 1
T:Old Joe's Jig
M:6/8
R:Jig
Z:As played by the CHB
K:D
f2A AFA|BAF A2A|BdB AFA|Bcd efg|\
fAA AFA|{d}BAF A2A|B/2c/2dB AFA|Bdc d2e:|\
fgf efe|dBA d2e|faa afe|faa b2a|\
~f3 efe|dBA d2e|fAA {d}AFA|Bdc d2e|\
faf efe|dBA d2e|faa bfe|fga b2a|\
fAA eAA|dBA d2e|fAA AFA|Bdc d2e||
